azure-patterns/svg-iot-blue.svg

<svg xmlns="http://www.w3.org/2000/svg" viewBox="0 0 49 49">
                                
                            
    <path d="M25.0674 24.9585L24.1651 24.0747L17.1237 31.2373C16.7526 31.0184 16.3141 30.9006 15.8587 30.9006C14.4589 30.9006 13.3373 32.0284 13.3373 33.4172C13.3373 34.8143 14.4673 35.9337 15.8587 35.9337C17.2586 35.9337 18.3802 34.8059 18.3802 33.4172C18.3802 32.9458 18.2537 32.5082 18.026 32.1294L25.0674 24.9585Z" fill="#50E6FF"></path>
    <path d="M29.7728 32.079C29.503 32.079 29.25 32.1043 28.997 32.1548L25.1853 24.2432L24.0469 24.7902L27.8164 32.6177C26.7201 33.2826 25.9864 34.4778 25.9864 35.8497C25.9864 37.937 27.673 39.6288 29.7728 39.6288C31.8726 39.6288 33.5592 37.9454 33.5592 35.8497C33.5592 33.7539 31.8642 32.079 29.7728 32.079Z" fill="#50E6FF"></path>
    <path d="M38.619 25.8421C37.6746 25.8421 36.8566 26.3555 36.4265 27.1214L24.7807 23.9062L24.4434 25.1267L36.0976 28.3418C36.0976 28.3502 36.0976 28.3586 36.0976 28.3586C36.0976 29.7558 37.2276 30.8752 38.619 30.8752C40.0189 30.8752 41.1405 29.7474 41.1405 28.3586C41.1405 26.9699 40.0189 25.8421 38.619 25.8421Z" fill="#50E6FF"></path>
    <path d="M24.8818 23.9485L17.0308 20.2115C17.0814 19.9674 17.1067 19.7065 17.1067 19.4456C17.1067 17.3582 15.4201 15.6665 13.3203 15.6665C11.2206 15.6665 9.53398 17.3498 9.53398 19.4456C9.53398 21.5413 11.2206 23.2246 13.3203 23.2246C14.7033 23.2246 15.9092 22.4924 16.567 21.3898L24.3337 25.0847L24.8818 23.9485Z" fill="#50E6FF"></path>
    <path d="M46.2085 13.3018C44.8086 13.3018 43.6871 14.4296 43.6871 15.8183C43.6871 16.0372 43.7124 16.256 43.7714 16.458L24.3842 23.9235L24.8396 25.1019L44.3954 17.569C44.8508 18.0403 45.5001 18.3349 46.2085 18.3349C47.6084 18.3349 48.7299 17.2071 48.7299 15.8183C48.7299 14.4296 47.6084 13.3018 46.2085 13.3018Z" fill="#50E6FF"></path>
    <path d="M25.7927 13.1333C25.7927 11.7361 24.6627 10.6167 23.2712 10.6167C21.8714 10.6167 20.7498 11.7445 20.7498 13.1333C20.7498 14.4126 21.7027 15.4647 22.9424 15.6246L23.988 24.5883L25.2445 24.4452L24.1989 15.4731C25.1349 15.1112 25.7927 14.1938 25.7927 13.1333Z" fill="#50E6FF"></path>
    <path d="M24.6121 29.5285C27.3832 29.5285 29.6297 27.2864 29.6297 24.5206C29.6297 21.7548 27.3832 19.5127 24.6121 19.5127C21.841 19.5127 19.5945 21.7548 19.5945 24.5206C19.5945 27.2864 21.841 29.5285 24.6121 29.5285Z" fill="#0078D4"></path>
    <path d="M19.7462 8.1844C19.0379 8.1844 18.4728 7.61207 18.4728 6.91349C18.4728 6.21491 19.0463 5.64258 19.7462 5.64258C20.4546 5.64258 21.0196 6.21491 21.0196 6.91349C21.0196 7.61207 20.4546 8.1844 19.7462 8.1844Z" fill="#0078D4"></path>
    <path d="M9.5509 40.9163C8.84254 40.9163 8.27753 40.344 8.27753 39.6454C8.27753 38.9468 8.85097 38.3745 9.5509 38.3745C10.2508 38.3745 10.8243 38.9468 10.8243 39.6454C10.8243 40.344 10.2593 40.9163 9.5509 40.9163Z" fill="#50E6FF"></path>
    <path d="M45.0534 30.9847C44.3451 30.9847 43.7801 30.4124 43.7801 29.7138C43.7801 29.0152 44.3535 28.4429 45.0534 28.4429C45.7618 28.4429 46.3268 29.0152 46.3268 29.7138C46.3268 30.4124 45.7618 30.9847 45.0534 30.9847Z" fill="#50E6FF"></path>
    <path d="M21.9557 43.7443L25.3879 23.6875L10.5629 27.0794C10.1413 26.2882 9.30641 25.758 8.34506 25.758C6.9452 25.758 5.82363 26.8858 5.82363 28.2746C5.82363 29.6717 6.95363 30.7911 8.34506 30.7911C9.72806 30.7911 10.8496 29.6801 10.8665 28.2998L23.8278 25.3372L20.7161 43.5255C19.4174 43.6265 18.3886 44.7122 18.3886 46.0336C18.3886 47.4308 19.5186 48.5502 20.9101 48.5502C22.3099 48.5502 23.4315 47.4224 23.4315 46.0336C23.4315 45.0152 22.8328 44.1399 21.9557 43.7443Z" fill="#0078D4"></path>
    <path d="M36.0891 10.6084C34.6893 10.6084 33.5677 11.7362 33.5677 13.125C33.5677 13.5963 33.6942 14.034 33.9219 14.4127L24.165 24.0666L25.0589 24.9672L34.8242 15.3049C35.1953 15.5237 35.6338 15.65 36.0976 15.65C37.4974 15.65 38.619 14.5221 38.619 13.1334C38.6106 11.7362 37.489 10.6084 36.0891 10.6084Z" fill="#0078D4"></path>
    <path d="M32.3113 43.45C31.6029 43.45 31.0379 42.8777 31.0379 42.1791C31.0379 41.4805 31.6113 40.9082 32.3113 40.9082C33.0112 40.9082 33.5846 41.4805 33.5846 42.1791C33.5846 42.8777 33.0196 43.45 32.3113 43.45Z" fill="#0078D4"></path>
    <path d="M42.3464 8.09993C41.638 8.09993 41.073 7.5276 41.073 6.82902C41.073 6.13044 41.6465 5.55811 42.3464 5.55811C43.0463 5.55811 43.6198 6.13044 43.6198 6.82902C43.6198 7.5276 43.0548 8.09993 42.3464 8.09993Z" fill="#50E6FF"></path>
</svg>

<svg xmlns="http://www.w3.org/2000/svg" viewBox="0 0 49 49"><path d="M25.067 24.959l-.902-.884-7.041 7.162a2.492 2.492 0 0 0-1.265-.336 2.515 2.515 0 0 0-2.522 2.516 2.515 2.515 0 0 0 2.522 2.517 2.515 2.515 0 0 0 2.167-3.805l7.041-7.17z" fill="#50E6FF"/><path d="M29.773 32.079c-.27 0-.523.025-.776.076l-3.812-7.912-1.138.547 3.77 7.828a3.774 3.774 0 0 0 1.956 7.01c2.1 0 3.786-1.683 3.786-3.778a3.77 3.77 0 0 0-3.786-3.771z" fill="#50E6FF"/><path d="M38.619 25.842c-.944 0-1.762.514-2.193 1.28l-11.645-3.216-.338 1.22 11.655 3.216v.017a2.515 2.515 0 0 0 2.521 2.516 2.515 2.515 0 1 0 0-5.033z" fill="#50E6FF"/><path d="M24.882 23.948l-7.851-3.736c.05-.245.076-.506.076-.766a3.777 3.777 0 0 0-3.787-3.78 3.772 3.772 0 0 0-3.786 3.78 3.772 3.772 0 0 0 3.786 3.779 3.767 3.767 0 0 0 3.247-1.835l7.767 3.695.548-1.137z" fill="#50E6FF"/><path d="M46.209 13.302a2.515 2.515 0 0 0-2.438 3.156l-19.387 7.466.456 1.178 19.555-7.533a2.524 2.524 0 0 0 1.813.766c1.4 0 2.522-1.128 2.522-2.517a2.515 2.515 0 0 0-2.521-2.516z" fill="#50E6FF"/><path d="M25.793 13.133a2.515 2.515 0 0 0-2.522-2.516 2.515 2.515 0 0 0-.329 5.008l1.046 8.963 1.256-.143-1.045-8.972a2.508 2.508 0 0 0 1.594-2.34z" fill="#50E6FF"/><path d="M24.612 29.529a5.013 5.013 0 0 0 5.018-5.008 5.013 5.013 0 0 0-5.018-5.008 5.013 5.013 0 0 0-5.017 5.008 5.013 5.013 0 0 0 5.017 5.008zM19.746 8.184a1.271 1.271 0 1 1 0-2.541 1.271 1.271 0 1 1 0 2.541z" fill="#0078D4"/><path d="M9.55 40.916a1.271 1.271 0 1 1 0-2.541c.7 0 1.274.572 1.274 1.27 0 .699-.565 1.271-1.273 1.271zM45.053 30.985a1.271 1.271 0 1 1 0-2.542 1.271 1.271 0 1 1 0 2.542z" fill="#50E6FF"/><path d="M21.956 43.744l3.432-20.056-14.825 3.391a2.503 2.503 0 0 0-2.218-1.321 2.515 2.515 0 0 0-2.521 2.517 2.515 2.515 0 0 0 2.521 2.516 2.52 2.52 0 0 0 2.521-2.491l12.962-2.963-3.112 18.189a2.515 2.515 0 0 0 .194 5.025c1.4 0 2.521-1.129 2.521-2.517a2.502 2.502 0 0 0-1.475-2.29z" fill="#0078D4"/><path d="M36.09 10.608a2.515 2.515 0 0 0-2.168 3.805l-9.757 9.654.894.9 9.765-9.662c.371.219.81.345 1.274.345 1.4 0 2.521-1.128 2.521-2.517a2.53 2.53 0 0 0-2.53-2.525zM32.311 43.45a1.271 1.271 0 1 1 0-2.542 1.271 1.271 0 0 1 0 2.542z" fill="#0078D4"/><path d="M42.346 8.1a1.271 1.271 0 1 1 0-2.542 1.271 1.271 0 0 1 0 2.542z" fill="#50E6FF"/></svg>
